build/svg/cmd/sc_starshapes.star8.svg

<?xml version="1.0" encoding="UTF-8" standalone="no"?>
<svg
   xmlns:dc="http://purl.org/dc/elements/1.1/"
   xmlns:cc="http://creativecommons.org/ns#"
   xmlns:rdf="http://www.w3.org/1999/02/22-rdf-syntax-ns#"
   xmlns:svg="http://www.w3.org/2000/svg"
   xmlns="http://www.w3.org/2000/svg"
   xmlns:sodipodi="http://sodipodi.sourceforge.net/DTD/sodipodi-0.dtd"
   xmlns:inkscape="http://www.inkscape.org/namespaces/inkscape"
   viewBox="0 0 16 16"
   version="1.1"
   id="svg4"
   sodipodi:docname="sc_starshapes.star8.svg"
   inkscape:export-filename="/home/jupiter007/Libreoffice yaru theme fullcolor/build/cmd/sc_starshapes.star8.png"
   inkscape:export-xdpi="96"
   inkscape:export-ydpi="96"
   inkscape:version="0.92.4 (5da689c313, 2019-01-14)"><metadata
   id="metadata10">
  <rdf:RDF>
    <cc:Work
       rdf:about="">
      <dc:format>image/svg+xml</dc:format>
      <dc:type
         rdf:resource="http://purl.org/dc/dcmitype/StillImage" />
    </cc:Work>
  </rdf:RDF>
</metadata>
<defs
   id="defs8" />
<sodipodi:namedview
   pagecolor="#ffffff"
   bordercolor="#666666"
   borderopacity="1"
   objecttolerance="10"
   gridtolerance="10"
   guidetolerance="10"
   inkscape:pageopacity="0"
   inkscape:pageshadow="2"
   inkscape:window-width="1920"
   inkscape:window-height="1011"
   id="namedview6"
   showgrid="false"
   inkscape:zoom="14.75"
   inkscape:cx="0.44067797"
   inkscape:cy="8"
   inkscape:window-x="1920"
   inkscape:window-y="32"
   inkscape:window-maximized="1"
   inkscape:current-layer="svg4" />
/&gt;<path
   style="fill:#000000;stroke:#000000;opacity:0.6;stroke-width:2;stroke-miterlimit:4;stroke-dasharray:none;stroke-linejoin:round"
   id="path817"
   fill="#232629"
   d="m8 2-1.7578125 1.7578125h-2.484375v2.484375l-1.7578125 1.7578125 1.7578125 1.7578125v2.4843755h2.484375l1.7578125 1.757812 1.7578125-1.757812h2.4843755v-2.4843755l1.757812-1.7578125-1.757812-1.7578125v-2.484375h-2.4843755z" />
<path
   d="m8 2-1.7578125 1.7578125h-2.484375v2.484375l-1.7578125 1.7578125 1.7578125 1.7578125v2.4843755h2.484375l1.7578125 1.757812 1.7578125-1.757812h2.4843755v-2.4843755l1.757812-1.7578125-1.757812-1.7578125v-2.484375h-2.4843755z"
   fill="#232629"
   id="path2"
   style="fill:#ffffff" />
</svg>

<svg xmlns="http://www.w3.org/2000/svg" viewBox="0 0 16 16">/&gt;<path d="M8 2L6.242 3.758H3.758v2.484L2 8l1.758 1.758v2.484h2.484L8 14l1.758-1.758h2.484V9.758L14 8l-1.758-1.758V3.758H9.758z" stroke="#000" opacity=".6" stroke-width="2" stroke-linejoin="round"/><path d="M8 2L6.242 3.758H3.758v2.484L2 8l1.758 1.758v2.484h2.484L8 14l1.758-1.758h2.484V9.758L14 8l-1.758-1.758V3.758H9.758z" fill="#fff"/></svg>
